packages/ui-icons/src/Basic/32/Instagram_32.svg

<svg xmlns="http://www.w3.org/2000/svg" viewBox="0 0 40 40"><path d="M29 4H11a7 7 0 0 0-7 7v18a7 7 0 0 0 7 7h18a7 7 0 0 0 7-7V11a7 7 0 0 0-7-7Zm5 25a5 5 0 0 1-5 5H11a5 5 0 0 1-5-5V11a5 5 0 0 1 5-5h18a5 5 0 0 1 5 5ZM20 12a8 8 0 1 0 8 8 8 8 0 0 0-8-8Zm0 14a6 6 0 1 1 6-6 6 6 0 0 1-6 6Zm11-15a2 2 0 1 1-2-2 2 2 0 0 1 2 2Z"/></svg>

<svg id="Ready" xmlns="http://www.w3.org/2000/svg" viewBox="0 0 40 40"><title>Megaicons_work_32_1.8_cp</title><path d="M29,4H11a7,7,0,0,0-7,7V29a7,7,0,0,0,7,7H29a7,7,0,0,0,7-7V11A7,7,0,0,0,29,4Zm5,25a5,5,0,0,1-5,5H11a5,5,0,0,1-5-5V11a5,5,0,0,1,5-5H29a5,5,0,0,1,5,5ZM20,12a8,8,0,1,0,8,8A8,8,0,0,0,20,12Zm0,14a6,6,0,1,1,6-6A6,6,0,0,1,20,26ZM31,11a2,2,0,1,1-2-2A2,2,0,0,1,31,11Z"/></svg>
